X:1
T:Title
%%score { ( 1 3 ) | ( 2 4 ) }
L:1/8
Q:1/4=100
M:4/4
K:E
V:1 treble nm="Grand Piano"
V:3 treble 
V:2 bass 
V:4 bass 
V:1
 G2 G>G G2 E2 | EEDE [CG]2 [CF]2 | A2 A>A [DA]2 [DF]2 | [DF][DF][B,E][DF] G4 | G2 G>G G2 E2 | %5
w: J.~Lincoln~Hall * * * *|||||
 EEDE [CG]2 [CF]2 | c2 d>c [GB]2 [EG]2 | [CB][CA]CD E4 | z4 G4 | G2 z2 G4 | ^A2 A>A c2 d2 | %11
w: ||||||
 [Dc]4 [B,DB]4 | e2 e>e B2 G2 | [CF][C^E][CF][CA] [Fd]2 [Ec]c | B4 z4 | E6 z2 |] %16
w: |||||
V:2
 [E,B,E]2 [E,B,E]>[E,B,E] [E,B,E]2 [E,G,B,]2 | [E,G,B,][E,G,B,][F,A,B,][E,G,B,] [A,,A,]2 [A,,A,]2 | %2
 [F,A,C]2 [F,A,C]>[F,A,C] [B,,B,]2 [B,,B,]2 | [B,,A,][B,,A,][B,,G,][B,,B,] [E,B,E]4 | %4
 [E,B,E]2 [E,B,E]>[E,B,E] [E,B,E]2 [E,G,B,]2 | [E,G,B,][E,G,B,][F,A,B,][E,G,B,] [A,,A,]2 [A,,A,]2 | %6
 [A,CE]2 [A,CE]>[A,CE] [E,E]2 [E,B,]2 | [A,,A,][A,,A,][B,,F,A,][B,,A,B,] [E,G,B,]4 | %8
 z4 [E,B,E]2 [E,B,]>[E,B,] | z2[K:treble] A>G[K:bass] [C,C]2 [C,C]>[C,C] | %10
 [F,CE]2 [F,CE]>[F,CE] [F,^A,E]2 [F,A,E]2 | [B,,B,]4 B,,2 A,2 | %12
 [G,B,E]2 [E,G,E]>[E,G,E] [E,G,E]2 [E,B,E]2 | [A,,A,][A,,A,][A,,A,][A,,A,] [A,,A,]2 .[A,,A,]2 | %14
 z [B,,G,][B,,G,][B,,G,] [B,,A,]2 [B,,A,B,]2 | [E,G,B,]6 z2 |] %16
V:3
 x8 | x8 | x8 | x8 | x8 | x8 | x8 | x8 | G2 G>G z2 E>E | [^B,F]4 E2 E>E | x8 | x8 | x8 | x8 | %14
 z EE[EB] [Dc]2 D2 | x8 |] %16
V:4
 x8 | x8 | x8 | x8 | x8 | x8 | x8 | x8 | x8 | D,4[K:treble][K:bass] z4 | x8 | x8 | x8 | x8 | x8 | %15
 x8 |] %16

